X:1
T:Blythe Was She
M:2/4
L:1/8
K:G
 B2 E3/2 F/2| A/2 A3/2 F/2 D3/2| B2 E3/2 F/2| A3/2 F/2 E2| B2 E3/2 F/2|\
 A3/2 A/2 F3/2 D/2| B2 E3/2 F/2| A/2 F3/2 EF| Dd d3/2- e/2| d3/2 B/2 Ad|\
 B/2 e3/2 e3/2 f/2| e3/2 d/2 B z/2 d/2| A3/2 B/2 d3/2 e/2| d3/2 B/2 A3/2 d/2|\
 B3/2 d/2 A3/2 F/2| A/2 F3/2 E2|
